svg/apple_keyboard_option.svg

<svg xmlns="http://www.w3.org/2000/svg" viewBox="0 0 24 24"><path d="M3 4h6.11l7.04 14H21v2h-6.12L7.84 6H3zm11 0h7v2h-7z"/></svg>

<?xml version="1.0" encoding="UTF-8"?><!DOCTYPE svg PUBLIC "-//W3C//DTD SVG 1.1//EN" "http://www.w3.org/Graphics/SVG/1.1/DTD/svg11.dtd"><svg xmlns="http://www.w3.org/2000/svg" xmlns:xlink="http://www.w3.org/1999/xlink" version="1.1" id="mdi-apple-keyboard-option" width="24" height="24" viewBox="0 0 24 24"><path d="M3,4H9.11L16.15,18H21V20H14.88L7.84,6H3V4M14,4H21V6H14V4Z" /></svg>
